!!!OTL: "Lockere Wirthschaft" ICH GING MIT LUST WOHL DURCH DEN WALD
!!!ARE: Europa, Mitteleuropa, Deutschland, Niederrhein
!!!SCT: Z1112
!!!YEM: Copyright 1995, estate of Helmut Schaffrath.
**kern
*ICvox
*Ivox
*M6/8
*k[]
*a:
{8e
=1
4e
8a
8a
8g#
8a
=2
4b
8ccn
4a}
{8a
=3
8.b
16ccn
8dd
4ee
8ee
=4
16dd
16ccn
4b
4r}
{8a
=5
8b
8ccn
8dd
4ee
8dd
=6
8ccn
8b
8ee
4a}
{8ccn
=7
8.dd
16ee
8dd
8ccn
8b
8a
=8
8g#
8a
8b
4e}
{8e
=9
8a
8a
8a
8b
8ccn
8dd
=10
4.ee
4.b
=11
4a
4.r}
==
!!!AGN: Romanze, Ballade
!!!ONB: ESAC (Essen Associative Code) Database: ZUCCAL
!!!AMT: compound duple
!!!AIN: vox
!!!EED: Helmut Schaffrath
!!!EEV: 1.0
*-
